X:1
T:Title
%%score { ( 1 4 ) | ( 2 3 ) }
L:1/8
M:4/4
K:F
V:1 treble nm="Grand Piano"
V:4 treble 
V:2 bass 
V:3 bass 
V:1
 z4 z2[Q:1/4=100] A>B | c2 d2 c2 [EA]>[EG] | F2 F2 F2 FG | A2 c2 B2 A2 |[M:3/4] [FA]4 G2 | %5
[M:1/4] A>B |[M:4/4] c2 d2 c2 [EA]>[EG] | F2 F2 F2 [Fd]2 | [Fc]2 [FA]2 [EA]3 [EG] |[M:3/4] F6 | %10
[M:1/4] cc |[M:4/4] d6 z2 | c6 z2 | G2 c2 d2 e2 |[M:3/4] [Ec]6 |[M:1/4] A>B | %16
[M:4/4] c2 d2 c2 [CEA]>[B,EG] |[M:9/8] [A,F]2 [A,_EF]- [A,EF] [Dd]2- [Dd][Fd]>[Fd] | %18
[M:4/4] [Fc]2 [FA]2 [EA]3 [EG] |[M:3/4] F6 |] %20
V:2
 z4 z2 [F,F]>[F,G,F] | [F,A,F]2 [F,B,F]2 [F,A,F]2 [C,C]>[C,B,] | %2
 [F,A,]2 [F,B,D]2 [F,A,C]2 [F,C]-[F,B,C] | [F,CF]2 [A,CF]2[K:bass] [G,CE]2 [F,CF]2 | %4
[M:3/4] z2 z2[K:treble] E2 |[M:1/4] [F,F]>[F,G,F] | %6
[M:4/4] [F,A,F]2 [F,B,F]2[K:bass] [F,A,F]2 [C,C]>[C,B,] | [F,A,]2 [F,B,D]2 [F,A,C]2 [B,,B,]2 | %8
 [C,A,]2 [C,C]2 [C,C]3 [C,B,] |[M:3/4] [F,A,]6 |[M:1/4] [F,A,F][F,A,F] | %11
[M:4/4] [B,,B,]2 [B,,B,]2 [B,,B,]2 z2 | [F,A,F]2 [F,A,]2 [F,A,]2 [F,CF]2 | %13
 [G,CE]2[K:treble] [G,CE]2 [G,=B,F]2 [G,B,G]2 |[M:3/4][K:bass] [C,C]6 |[M:1/4] [F,F]>[F,G,F] | %16
[M:4/4] [F,A,F]2 [F,B,F]2 [F,A,F]2 C,>C, |[M:9/8] D,2 C,- C, [B,,B,]2- [B,,B,][B,,B,]>[B,,B,] | %18
[M:4/4] [C,A,]2 [C,C]2 [C,C]3 [C,B,] |[M:3/4] [F,A,]6 |] %20
V:3
 x8 | x8 | z4 z2 .A,2 | x4[K:bass] x4 |[M:3/4] [C,C]6[K:treble] |[M:1/4] x2 | %6
[M:4/4] x4[K:bass] x4 | x8 | x8 |[M:3/4] x6 |[M:1/4] x2 |[M:4/4] x8 | x8 | x2[K:treble] x6 | %14
[M:3/4][K:bass] x6 |[M:1/4] x2 |[M:4/4] x8 |[M:9/8] x9 |[M:4/4] x8 |[M:3/4] x6 |] %20
V:4
 x8 | x8 | x8 | x8 |[M:3/4] x6 |[M:1/4] x2 |[M:4/4] x8 | x8 | x8 |[M:3/4] x6 |[M:1/4] x2 | %11
[M:4/4] F2 F2 F2 f2 | z2 F2 F2 A2 | x8 |[M:3/4] x6 |[M:1/4] x2 |[M:4/4] x8 |[M:9/8] x9 | %18
[M:4/4] x8 |[M:3/4] x6 |] %20

